X:1
T: The Inveraray Inn
C:
R:Jig
Q:180
K:A
M:6/8
L:1/16
E2|A4A2 A4A2|A4B2 c4A2|B4E2 E4E2|E6E4E2|A4A2 A4A2|A4e2 c4e2|G6G6|G6B4c2|
d4c2 B4c2|d4B2 B4B2|A4G2 A4B2|c4e2 e4c2|B4B2 B4B2|B4A2 F4G2|E6E6|E6B4c2|
d4c2 B4c2|d4B2 B4B2|A4G2 A4B2|c6c4c2|A4A2 A4A2|e4e2 c4e2|G6G6|G6B4c2|
d4c2 B4c2|d4B2 B4B2|A4G2 A4B2|c4e2 e4c2|B4B2 B4B2|B4A2 F4G2|E6E6|E4c2c4d2|
e6A6|A6A4E2|F4G2A4F2|E4A2A4B2|c4c2c4A2|B4G2F4E2|A6A6|A4A2B4c2|
d6c6|B4G2F4E2|A4G2A4B2|c6c6|B4c2^d4e2|f4^d2c4B2|e6e6|e6e6|
A6A6|c6e6|e4d2B6|E4D2B,4E2|A4A2A4A2|A4B2c4A2|c6c6|B6B2c2d2|
e4f2e4c2|A6c4A2|F4A2E4C2|E6E2c2d2|e4e2e4e2|e4f2e4c2|B6B6|A6A4||
